icon-themes/sifr_svg/svx/res/selection_10x22.svg

<svg viewBox="0 0 22 10" xmlns="http://www.w3.org/2000/svg"><path d="m14 0v2h2v6h-2v2h6v-2h-2v-6h2v-2zm-12 2v6h10v-6zm2 2h6v2h-6z" fill="#555753"/></svg>

<svg xmlns="http://www.w3.org/2000/svg" viewBox="0 0 22 10">
  <path
     style="fill:#555753"
     d="m 14,0 v 2 h 2 v 6 h -2 v 2 h 6 V 8 H 18 V 2 h 2 V 0 Z M 2,2 V 8 H 12 V 2 Z m 2,2 h 6 V 6 H 4 Z"
     />
</svg>
